X:69
T:Vesivehmaan Jenkka
M:2/4
L:1/16
Q:1/4=80
S:(play parts A-B-A-C-A)
R:jenkka
P:A
K:G
|: "G" BBBA "C" GGGE | "G" DDDB, D2G2 | "D7" FFFG A2Ac | "G" BcBA G2D2 | !
BBBA "C" GGGE | "G" DDDG B2Bd | "D7" DDDF A2BA | "G" G2G2G2 z2 :| !
P:B
|: "Em" EGBe Begb | "Am" cec'b a2a2 | "B7" bc'ba f^dfa | baBg "Em" ~f2e2 | !
"Em" EGBe Begb | "Am" cec'b a2a2 | "B7"  b2ba f^dgf | "Em" e2e2e2 z2 :| !
P:C
|: "G" bagf edcB | "Am" dcec A2A2 | "D7" agfe d2dg | "G" bagf ~e2d2 | !
"G" bagf edcB | "Am" dcec A2cg | "D7" f2fe AcBA | "G" G2B2G2 z2 :||
